packages/foundations/assets/icons/functional/images/communication/paper_plane_14.svg

<svg width="14" height="14" viewBox="0 0 14 14" fill="none" xmlns="http://www.w3.org/2000/svg">
<g clip-path="url(#clip0_185_470)">
<path fill-rule="evenodd" clip-rule="evenodd" d="M12.3976 1.60245C12.5888 1.80739 12.6572 2.09425 12.5478 2.35382L8.61332 12.1629C8.50406 12.4224 8.25813 12.6 7.97128 12.6C7.64336 12.5863 7.39743 12.3951 7.31552 12.1219L5.96303 8.03702L1.87818 6.68453C1.60497 6.60262 1.41373 6.34304 1.40002 6.05612C1.40002 5.75556 1.56398 5.49599 1.83719 5.38673L11.6462 1.4522C11.9058 1.34287 12.1927 1.41121 12.3976 1.60245ZM10.6626 3.33749L4.11866 5.9605L6.72804 6.8212C6.93298 6.90311 7.09694 7.05343 7.16521 7.27201L8.02591 9.88139L10.6626 3.33749Z" fill="#1A1C1F"/>
</g>
<defs>
<clipPath id="clip0_185_470">
<rect width="14" height="14" fill="white"/>
</clipPath>
</defs>
</svg>

<svg xmlns="http://www.w3.org/2000/svg" width="14" height="14" fill="none"><g clip-path="url(#a)"><path fill="#1A1C1F" fill-rule="evenodd" d="M12.398 1.602c.19.205.26.492.15.752l-3.935 9.809a.7.7 0 0 1-.642.437c-.328-.014-.574-.205-.655-.478L5.963 8.037 1.878 6.685a.69.69 0 0 1-.478-.629c0-.3.164-.56.437-.67l9.81-3.934a.7.7 0 0 1 .75.15m-1.735 1.735L4.119 5.96l2.609.861a.72.72 0 0 1 .437.451l.86 2.61z" clip-rule="evenodd"/></g><defs><clipPath id="a"><path fill="#fff" d="M0 0h14v14H0z"/></clipPath></defs></svg>
